Simply-Green-Circles/scalable/emotes/face-uncertain.svg

<svg xmlns="http://www.w3.org/2000/svg" width="48" height="48" viewBox="0 0 12.7 12.7"><path d="M6.34.07a6.29 6.29 0 0 0-6.29 6.3 6.29 6.29 0 0 0 6.3 6.28 6.29 6.29 0 0 0 6.28-6.29A6.29 6.29 0 0 0 6.34.07zM6.32 1l.01.01a5.4 5.4 0 0 1 5.4 5.4 5.4 5.4 0 0 1-5.4 5.41 5.4 5.4 0 0 1-5.41-5.4A5.4 5.4 0 0 1 6.32 1zm2.02 2.54a.66 1.55 0 0 0-.65 1.55.66 1.55 0 0 0 .65 1.54A.66 1.55 0 0 0 9 5.1a.66 1.55 0 0 0-.66-1.55zm-3.98.03a.66 1.55 0 0 0-.66 1.55.66 1.55 0 0 0 .66 1.54A.66 1.55 0 0 0 5 5.12a.66 1.55 0 0 0-.65-1.55zm3.97.41a.2.3 0 0 1 .2.3.2.3 0 0 1-.2.3.2.3 0 0 1-.2-.3.2.3 0 0 1 .2-.3zm-3.99.03a.2.3 0 0 1 .2.3.2.3 0 0 1-.2.3.2.3 0 0 1-.2-.3.2.3 0 0 1 .2-.3zm4.57 3.75c-2.1-.02-3.2 1.73-5.08 2.28.05-.01.27.07.7-.04C6.7 9.4 7.44 7.65 10 8.33l-.13-.44a4.27 4.27 0 0 0-.96-.13zm-.44.94c-.73 0-1.29.37-1.84.79l.12.3c.55-.4 1.08-.78 1.8-.74l-.08-.35z" fill="#2ca02c"/></svg>

<?xml version="1.0" encoding="UTF-8" standalone="no"?>
<svg
   xmlns:dc="http://purl.org/dc/elements/1.1/"
   xmlns:cc="http://creativecommons.org/ns#"
   xmlns:rdf="http://www.w3.org/1999/02/22-rdf-syntax-ns#"
   xmlns:svg="http://www.w3.org/2000/svg"
   xmlns="http://www.w3.org/2000/svg"
   xmlns:sodipodi="http://sodipodi.sourceforge.net/DTD/sodipodi-0.dtd"
   xmlns:inkscape="http://www.inkscape.org/namespaces/inkscape"
   width="48"
   height="48"
   viewBox="0 0 12.7 12.7"
   version="1.1"
   id="svg4"
   sodipodi:docname="face-uncertain.svg"
   inkscape:version="0.92.4 (5da689c313, 2019-01-14)">
  <metadata
     id="metadata10">
    <rdf:RDF>
      <cc:Work
         rdf:about="">
        <dc:format>image/svg+xml</dc:format>
        <dc:type
           rdf:resource="http://purl.org/dc/dcmitype/StillImage" />
        <dc:title></dc:title>
      </cc:Work>
    </rdf:RDF>
  </metadata>
  <defs
     id="defs8" />
  <sodipodi:namedview
     pagecolor="#ffffff"
     bordercolor="#666666"
     borderopacity="1"
     objecttolerance="10"
     gridtolerance="10"
     guidetolerance="10"
     inkscape:pageopacity="0"
     inkscape:pageshadow="2"
     inkscape:window-width="1087"
     inkscape:window-height="480"
     id="namedview6"
     showgrid="false"
     inkscape:zoom="4.9166667"
     inkscape:cx="2.1355932"
     inkscape:cy="24"
     inkscape:window-x="0"
     inkscape:window-y="25"
     inkscape:window-maximized="0"
     inkscape:current-layer="svg4" />
  <path
     d="M 6.34,0.07 A 6.29,6.29 0 0 0 0.05,6.37 6.29,6.29 0 0 0 6.35,12.65 6.29,6.29 0 0 0 12.63,6.36 6.29,6.29 0 0 0 6.34,0.07 Z M 6.32,1 6.33,1.01 a 5.4,5.4 0 0 1 5.4,5.4 5.4,5.4 0 0 1 -5.4,5.41 A 5.4,5.4 0 0 1 0.92,6.42 5.4,5.4 0 0 1 6.32,1 Z M 8.34,3.54 A 0.66,1.55 0 0 0 7.69,5.09 0.66,1.55 0 0 0 8.34,6.63 0.66,1.55 0 0 0 9,5.1 0.66,1.55 0 0 0 8.34,3.55 Z M 4.36,3.57 A 0.66,1.55 0 0 0 3.7,5.12 0.66,1.55 0 0 0 4.36,6.66 0.66,1.55 0 0 0 5,5.12 0.66,1.55 0 0 0 4.35,3.57 Z m 3.97,0.41 a 0.2,0.3 0 0 1 0.2,0.3 0.2,0.3 0 0 1 -0.2,0.3 0.2,0.3 0 0 1 -0.2,-0.3 0.2,0.3 0 0 1 0.2,-0.3 z M 4.34,4.01 a 0.2,0.3 0 0 1 0.2,0.3 0.2,0.3 0 0 1 -0.2,0.3 0.2,0.3 0 0 1 -0.2,-0.3 0.2,0.3 0 0 1 0.2,-0.3 z M 8.91,7.76 C 6.81,7.74 5.71,9.49 3.83,10.04 3.88,10.03 4.1,10.11 4.53,10 6.7,9.4 7.44,7.65 10,8.33 L 9.87,7.89 A 4.27,4.27 0 0 0 8.91,7.76 Z M 8.47,8.7 C 7.74,8.7 7.18,9.07 6.63,9.49 l 0.12,0.3 C 7.3,9.39 7.83,9.01 8.55,9.05 Z"
     id="path2"
     inkscape:connector-curvature="0"
     style="fill:#2ca02c" />
</svg>
